Newaita/actions/22/format-text-remove-formatting.svg

<svg height="22" viewBox="0 0 22 22" width="22" xmlns="http://www.w3.org/2000/svg"><path d="m10.914062 4.039062c-1.25 0-2.398437.3125-3.316406.835938l1.308594 1.308594c.507812-.207032 1.105469-.328125 1.746094-.328125h.527344c1.867187 0 3.375 1.015625 3.375 2.273437v1.820313h1.816406v-1.820313c0-2.265625-2.433594-4.089844-5.457032-4.089844zm-4.972656 8.183594c-.3125.515625-.484375 1.089844-.484375 1.691406v.457032h.035157c.296874 2.050781 2.605468 3.636718 5.421874 3.636718 1.214844 0 2.332032-.292968 3.234376-.792968l-1.316407-1.316406c-.488281.1875-1.050781.289062-1.652343.289062h-.527344c-1.871094 0-3.375-1.011719-3.375-2.273438 0-.671874.429687-1.273437 1.113281-1.691406zm9.003906 0 1.425782 1.425782v-1.425782zm-.390624 5.398438v.289062h.289062zm0 0" fill="#424242"/><path d="m4 5.136719c-.175781.179687-.175781.464843 0 .644531l12.167969 12.167969.054687.050781.050782.054688c.148437.148437.414062.125.589843-.054688l.964844-.964844c.179687-.175781.203125-.441406.054687-.589844l-.054687-.050781-.050781-.054687-12.167969-12.167969c-.179687-.175781-.464844-.175781-.644531 0zm0 0" fill="#ef5350"/></svg>

<svg xmlns="http://www.w3.org/2000/svg" xmlns:xlink="http://www.w3.org/1999/xlink" width="22px" height="22px" viewBox="0 0 22 22" version="1.1">
<g id="surface1">
     <defs>
  <style id="current-color-scheme" type="text/css">
   .ColorScheme-Text { color:#424242; } .ColorScheme-Highlight { color:#eeeeee; }
  </style>
 </defs>
<path style="fill:currentColor" class="ColorScheme-Text" d="M 10.914062 4.039062 C 9.664062 4.039062 8.515625 4.351562 7.597656 4.875 L 8.90625 6.183594 C 9.414062 5.976562 10.011719 5.855469 10.652344 5.855469 L 11.179688 5.855469 C 13.046875 5.855469 14.554688 6.871094 14.554688 8.128906 L 14.554688 9.949219 L 16.371094 9.949219 L 16.371094 8.128906 C 16.371094 5.863281 13.9375 4.039062 10.914062 4.039062 Z M 5.941406 12.222656 C 5.628906 12.738281 5.457031 13.3125 5.457031 13.914062 L 5.457031 14.371094 L 5.492188 14.371094 C 5.789062 16.421875 8.097656 18.007812 10.914062 18.007812 C 12.128906 18.007812 13.246094 17.714844 14.148438 17.214844 L 12.832031 15.898438 C 12.34375 16.085938 11.78125 16.1875 11.179688 16.1875 L 10.652344 16.1875 C 8.78125 16.1875 7.277344 15.175781 7.277344 13.914062 C 7.277344 13.242188 7.707031 12.640625 8.390625 12.222656 Z M 14.945312 12.222656 L 16.371094 13.648438 L 16.371094 12.222656 Z M 14.554688 17.621094 L 14.554688 17.910156 L 14.84375 17.910156 Z M 14.554688 17.621094 "/>
<path style=" stroke:none;fill-rule:nonzero;fill:rgb(93.725491%,32.549021%,31.37255%);fill-opacity:1;" d="M 4 5.136719 C 3.824219 5.316406 3.824219 5.601562 4 5.78125 L 16.167969 17.949219 L 16.222656 18 L 16.273438 18.054688 C 16.421875 18.203125 16.6875 18.179688 16.863281 18 L 17.828125 17.035156 C 18.007812 16.859375 18.03125 16.59375 17.882812 16.445312 L 17.828125 16.394531 L 17.777344 16.339844 L 5.609375 4.171875 C 5.429688 3.996094 5.144531 3.996094 4.964844 4.171875 Z M 4 5.136719 "/>
</g>
</svg>
